icons/telegram.svg

<svg width="53" height="53" viewBox="0 0 53 53" fill="none" xmlns="http://www.w3.org/2000/svg">
<path d="M44.7188 0H8.28125C3.70764 0 0 3.70764 0 8.28125V44.7188C0 49.2924 3.70764 53 8.28125 53H44.7188C49.2924 53 53 49.2924 53 44.7188V8.28125C53 3.70764 49.2924 0 44.7188 0Z" fill="#0088CC"/>
<path d="M13.4155 26.0169C20.529 22.9176 25.2725 20.8744 27.6459 19.8872C34.4224 17.0686 35.8305 16.579 36.7483 16.5627C36.9502 16.5593 37.4015 16.6093 37.6939 16.8465C37.9407 17.0468 38.0087 17.3174 38.0412 17.5074C38.0737 17.6973 38.1141 18.1299 38.082 18.468C37.7147 22.3264 36.1258 31.6898 35.3174 36.0114C34.9753 37.84 34.3018 38.4531 33.6498 38.5131C32.2327 38.6435 31.1567 37.5766 29.7842 36.677C27.6366 35.2691 26.4233 34.3928 24.3386 33.019C21.9295 31.4314 23.4912 30.5588 24.8642 29.1328C25.2235 28.7596 31.467 23.0806 31.5879 22.5654C31.603 22.501 31.617 22.2608 31.4743 22.134C31.3317 22.0072 31.1211 22.0506 30.9691 22.0851C30.7537 22.134 27.3228 24.4016 20.6764 28.8881C19.7026 29.5569 18.8205 29.8827 18.0302 29.8656C17.1589 29.8468 15.483 29.373 14.2371 28.968C12.7089 28.4713 11.4944 28.2086 11.6002 27.365C11.6553 26.9256 12.2604 26.4762 13.4155 26.0169Z" fill="white"/>
</svg>

<svg width="53" height="53" fill="none" xmlns="http://www.w3.org/2000/svg"><path d="M44.719 0H8.28A8.281 8.281 0 0 0 0 8.281V44.72A8.281 8.281 0 0 0 8.281 53H44.72A8.281 8.281 0 0 0 53 44.719V8.28A8.281 8.281 0 0 0 44.719 0Z" fill="#08C"/><path d="M13.415 26.017c7.114-3.1 11.858-5.143 14.23-6.13 6.777-2.818 8.186-3.308 9.103-3.324.202-.004.654.046.946.284.247.2.315.47.347.66.033.19.073.623.041.961-.367 3.858-1.956 13.222-2.765 17.543-.342 1.829-1.015 2.442-1.667 2.502-1.417.13-2.493-.936-3.866-1.836-2.147-1.408-3.36-2.284-5.445-3.658-2.41-1.588-.848-2.46.525-3.886.36-.373 6.603-6.052 6.724-6.568.015-.064.029-.304-.114-.431-.142-.127-.353-.083-.505-.049-.215.049-3.646 2.317-10.293 6.803-.973.669-1.855.995-2.646.978-.871-.02-2.547-.493-3.793-.898-1.528-.497-2.743-.76-2.637-1.603.055-.44.66-.889 1.816-1.348Z" fill="#fff"/></svg>
